contributed-vectors/fine_lock.svg

<svg xmlns="http://www.w3.org/2000/svg" xml:space="preserve" style="fill-rule:evenodd;clip-rule:evenodd;stroke-linejoin:round;stroke-miterlimit:2" viewBox="0 0 192 192"><path d="M164.5 21.5c0-5.519-4.481-10-10-10h-133c-5.519 0-10 4.481-10 10v133c0 5.519 4.481 10 10 10h133c5.519 0 10-4.481 10-10v-133Z" style="fill:#9abeff" transform="translate(8 8)"/><path d="M48.5 133.5V96H96v14.145a11.514 11.514 0 0 1 6.462-1.972c6.389 0 11.577 5.187 11.577 11.577s-5.188 11.577-11.577 11.577c-2.393 0-4.617-.727-6.462-1.972V143.5H58.5c-5.519 0-10-4.481-10-10Z" style="fill:#fff" transform="translate(13.229 13.229) scale(.8622)"/><path d="M96 48.5V96H81.855a11.514 11.514 0 0 1 1.972 6.462c0 6.389-5.187 11.577-11.577 11.577s-11.577-5.188-11.577-11.577c0-2.393.727-4.617 1.972-6.462H48.5V58.5c0-5.519 4.481-10 10-10H96Z" style="fill:#728dbe" transform="translate(13.229 13.229) scale(.8622)"/><path d="M96 48.5h37.5c5.519 0 10 4.481 10 10V96H96V81.855a11.514 11.514 0 0 1-6.462 1.972c-6.389 0-11.577-5.187-11.577-11.577s5.188-11.577 11.577-11.577c2.393 0 4.617.727 6.462 1.972V48.5Z" style="fill:#fff" transform="translate(13.229 13.229) scale(.8622)"/><path d="M96 143.5V96h14.145a11.514 11.514 0 0 1-1.972-6.462c0-6.389 5.187-11.577 11.577-11.577s11.577 5.188 11.577 11.577c0 2.393-.727 4.617-1.972 6.462H143.5v37.5c0 5.519-4.481 10-10 10H96Z" style="fill:#728dbe" transform="translate(13.229 13.229) scale(.8622)"/><path d="M96 96v14.145a11.514 11.514 0 0 1 6.462-1.972c6.389 0 11.577 5.187 11.577 11.577s-5.188 11.577-11.577 11.577c-2.393 0-4.617-.727-6.462-1.972V143.5h-2.86V96H96Z" style="fill:#fff" transform="translate(13.229 13.229) scale(.8622)"/></svg>

<?xml version="1.0" encoding="UTF-8" standalone="no"?>
<!DOCTYPE svg PUBLIC "-//W3C//DTD SVG 1.1//EN" "http://www.w3.org/Graphics/SVG/1.1/DTD/svg11.dtd">
<svg width="100%" height="100%" viewBox="0 0 192 192" version="1.1" xmlns="http://www.w3.org/2000/svg" xmlns:xlink="http://www.w3.org/1999/xlink" xml:space="preserve" xmlns:serif="http://www.serif.com/" style="fill-rule:evenodd;clip-rule:evenodd;stroke-linejoin:round;stroke-miterlimit:2;">
    <g id="Layer1">
        <g transform="matrix(1,0,0,1,8,8)">
            <path d="M164.5,21.5C164.5,15.981 160.019,11.5 154.5,11.5L21.5,11.5C15.981,11.5 11.5,15.981 11.5,21.5L11.5,154.5C11.5,160.019 15.981,164.5 21.5,164.5L154.5,164.5C160.019,164.5 164.5,160.019 164.5,154.5L164.5,21.5Z" style="fill:rgb(154,190,255);"/>
        </g>
        <g transform="matrix(0.862201,0,0,0.862201,13.2287,13.2287)">
            <path d="M48.5,133.5L48.5,96L96,96L96,110.145C97.845,108.9 100.069,108.173 102.462,108.173C108.851,108.173 114.039,113.36 114.039,119.75C114.039,126.14 108.851,131.327 102.462,131.327C100.069,131.327 97.845,130.6 96,129.355L96,143.5L58.5,143.5C52.981,143.5 48.5,139.019 48.5,133.5Z" style="fill:white;"/>
            <path d="M96,48.5L96,96L81.855,96C83.1,97.845 83.827,100.069 83.827,102.462C83.827,108.851 78.64,114.039 72.25,114.039C65.86,114.039 60.673,108.851 60.673,102.462C60.673,100.069 61.4,97.845 62.645,96L48.5,96L48.5,58.5C48.5,52.981 52.981,48.5 58.5,48.5L96,48.5Z" style="fill:rgb(114,141,190);"/>
            <path d="M96,48.5L133.5,48.5C139.019,48.5 143.5,52.981 143.5,58.5L143.5,96L96,96L96,81.855C94.155,83.1 91.931,83.827 89.538,83.827C83.149,83.827 77.961,78.64 77.961,72.25C77.961,65.86 83.149,60.673 89.538,60.673C91.931,60.673 94.155,61.4 96,62.645L96,48.5Z" style="fill:white;"/>
            <path d="M96,143.5L96,96L110.145,96C108.9,94.155 108.173,91.931 108.173,89.538C108.173,83.149 113.36,77.961 119.75,77.961C126.14,77.961 131.327,83.149 131.327,89.538C131.327,91.931 130.6,94.155 129.355,96L143.5,96L143.5,133.5C143.5,139.019 139.019,143.5 133.5,143.5L96,143.5Z" style="fill:rgb(114,141,190);"/>
            <path d="M96,96L96,110.145C97.845,108.9 100.069,108.173 102.462,108.173C108.851,108.173 114.039,113.36 114.039,119.75C114.039,126.14 108.851,131.327 102.462,131.327C100.069,131.327 97.845,130.6 96,129.355L96,143.5L93.14,143.5L93.14,96L96,96Z" style="fill:white;"/>
        </g>
    </g>
</svg>
